!!!COM:	Bach, Johann Sebastian
!!!OMV:	From the Depths of My Heart
!!!OTL:	From the Depths of My Heart
**kern	**fb	**kern	**kern	**kern	**kern	**kern	**kern	**kern
*part8	*part8	*part7	*part6	*part5	*part4	*part3	*part2	*part1
*staff8	*	*staff7	*staff6	*staff5	*staff4	*staff3	*staff2	*staff1
*I"Continuo	*	*I"Voice	*I"Voice	*I"Voice	*I"Voice	*I"Viola	*I"Violin	*I"Violin
*I'Cont.	*	*I'V	*I'V	*I'V	*I'V	*I'Vla.	*I'Vln.	*I'Vln.
*clefF4	*	*clefF4	*clefGv2	*clefG2	*clefG2	*clefC3	*clefG2	*clefG2
*Trd0c0	*	*	*	*	*	*	*	*
*k[b-e-]	*	*k[b-e-]	*k[b-e-]	*k[b-e-]	*k[b-e-]	*k[b-e-]	*k[b-e-]	*k[b-e-]
*M4/4	*	*M4/4	*M4/4	*M4/4	*M4/4	*M4/4	*M4/4	*M4/4
=	=	=	=	=	=	=	=	=
4B-	5	4B-	8B-L	8fL	4dd	16fLL	16b-LL	16ddLL
.	.	.	.	.	.	16f	16b-	16dd
.	.	.	8cJ	16b-L	.	16f	16b-	16dd
.	.	.	.	16aJJ	.	16fJJ	16b-JJ	16ddJJ
8AL	7 4 2	8AL	4d	8b-L	4dd	16gLL	16b-LL	16ddLL
.	.	.	.	.	.	16g	16b-	16dd
8GJ	.	8GJ	.	8ccJ	.	16g	16b-	16dd
.	.	.	.	.	.	16gJJ	16b-JJ	16ddJJ
4F#X	6	4F#X	4d	4dd	4a	16aLL	16ccLL	16ddLL
.	.	.	.	.	.	16a	16cc	16dd
.	.	.	.	.	.	16a	16cc	16dd
.	.	.	.	.	.	16aJJ	16ccJJ	16ddJJ
4Fn	6 nr4 2	4Fn	4d	4g	4bn	16dLL	16bnLL	16ggLL
.	.	.	.	.	.	16d	16b	16gg
.	.	.	.	.	.	16d	16b	16gg
.	.	.	.	.	.	16dJJ	16bJJ	16ggJJ
=3	=3	=3	=3	=3	=3	=3	=3	=3
4En	6	4En	4c	4g	4cc	16enLL	16gLL	16ggLL
.	.	.	.	.	.	16e	16g	16gg
.	.	.	.	.	.	16e	16g	16gg
.	.	.	.	.	.	16eJJ	16gJJ	16ggJJ
8E-XL	5	8E-XL	8gL	4g	4b-X	16gLL	16b-LL	16ggLL
.	.	.	.	.	.	16g	16b-	16gg
8DJ	.	8DJ	8fJ	.	.	16g	16b-	16gg
.	.	.	.	.	.	16gJJ	16b-JJ	16ggJJ
4C	6 5	4C	4e-X	4a	2a	16aLL	16ee-LL	16ggLL
.	.	.	.	.	.	16a	16ee-	16gg
.	.	.	.	.	.	16a	16ee-	16gg
.	.	.	.	.	.	16aJJ	16ee-JJ	16ggJJ
4D	#	4D	8dL	4d	.	16aLL	16ddLL	16ff#XLL
.	.	.	.	.	.	16a	16dd	16ff#
.	.	.	8cJ	.	.	16a	16dd	16ff#
.	.	.	.	.	.	16aJJ	16ddJJ	16ff#JJ
=4	=4	=4	=4	=4	=4	=4	=4	=4
!!pagebreak:original
4GG;	.	4GG;	4B-;	4d;	4g;	16b-LL	16ddLL	16ggLL
.	.	.	.	.	.	16b-	16dd	16gg
.	.	.	.	.	.	16b-	16dd	16gg
.	.	.	.	.	.	16b-JJ	16ddJJ	16ggJJ
4r	.	4r	4r	4r	4r	16bnLL	16ddLL	16ffLL
.	.	.	.	.	.	16b	16dd	16ff
.	.	.	.	.	.	16b	16dd	16ff
.	.	.	.	.	.	16bJJ	16ddJJ	16ffJJ
2r	.	2r	2r	2r	2r	16ccLL	16ddLL	16eenLL
.	.	.	.	.	.	16cc	16dd	16ee
.	.	.	.	.	.	16cc	16dd	16ee
.	.	.	.	.	.	16ccJJ	16ddJJ	16eeJJ
.	.	.	.	.	.	16f#XLL	16ccLL	16ee-XLL
.	.	.	.	.	.	16f#	16cc	16ee-
.	.	.	.	.	.	16f#	16cc	16ee-
.	.	.	.	.	.	16f#JJ	16ccJJ	16ee-JJ
=5	=5	=5	=5	=5	=5	=5	=5	=5
8GL	.	8GL	4G	4d	4b-	16gLL	16b-LL	16ddLL
.	.	.	.	.	.	16g	16b-	16dd
8F	.	8F	.	.	.	16g	16b-	16dd
.	.	.	.	.	.	16gJJ	16b-JJ	16ddJJ
8E-	.	8E-	4G	4g	4b-	16gLL	16b-LL	16ggLL
.	.	.	.	.	.	16g	16b-	16gg
8DJ	.	8DJ	.	.	.	16g	16b-	16gg
.	.	.	.	.	.	16gJJ	16b-JJ	16ggJJ
8CL	6 5	8CL	8AL	8gL	4a	16aLL	16ee-LL	16ggLL
.	.	.	.	.	.	16a	16ee-	16gg
8DJ	#	8DJ	8B-J	8dJ	.	16d	16dd	16ff#X
.	.	.	.	.	.	16dJJ	16ddJJ	16ff#JJ
4E-	6	4E-	4c	4g	4g	16gLL	16ccLL	16ggLL
.	.	.	.	.	.	16g	16cc	16gg
.	.	.	.	.	.	16B-	16b-	16gg
.	.	.	.	.	.	16B-JJ	16b-JJ	16ggJJ
=6	=6	=6	=6	=6	=6	=6	=6	=6
!!pagebreak:original
4AA	#6\	4AA	4c	4a	4f#X	16e-LL	16aLL	16ccLL
.	.	.	.	.	.	16e-	16a	16cc
.	.	.	.	.	.	16c	16a	16cc
.	.	.	.	.	.	16cJJ	16aJJ	16ccJJ
4GG	.	4GG	8dL	8b-L	4g	16gLL	16dLL	16b-LL
.	.	.	.	.	.	16g	16d	16b-
.	.	.	8B-J	8gJ	.	16c#X	16en	16b-
.	.	.	.	.	.	16c#JJ	16eJJ	16b-JJ
4D;	#	4D;	4d;	4f#X;	4a;	16dLL	16f#XLL	16aLL
.	.	.	.	.	.	16d	16f#	16a
.	.	.	.	.	.	16d	16f#	16a
.	.	.	.	.	.	16dJJ	16f#JJ	16aJJ
4r	.	4r	4r	4r	4r	16dLL	16b-LL	16ddLL
.	.	.	.	.	.	16d	16b-	16dd
.	.	.	.	.	.	16d	16b-	16dd
.	.	.	.	.	.	16dJJ	16b-JJ	16ddJJ
=7	=7	=7	=7	=7	=7	=7	=7	=7
2r	.	2r	2r	2r	2r	16enLL	16b-LL	16cc#XLL
.	.	.	.	.	.	16e	16b-	16cc#
.	.	.	.	.	.	16e	16b-	16cc#
.	.	.	.	.	.	16eJJ	16b-JJ	16cc#JJ
.	.	.	.	.	.	16f#XLL	16aLL	16ccnLL
.	.	.	.	.	.	16f#	16a	16cc
.	.	.	.	.	.	16f#	16a	16cc
.	.	.	.	.	.	16f#JJ	16aJJ	16ccJJ
8GGL	.	8GGL	4d	8b-L	4dd	12gL	12gL	12b-L
.	.	.	.	.	.	12g	12g	12b-
8AA	.	8AA	.	8ccJ	.	.	.	.
.	.	.	.	.	.	12gJ	12gJ	12b-J
8BB-	6	8BB-	8DL	4dd	4dd	12dL	12gL	12b-L
.	.	.	.	.	.	12d	12g	12b-
8CJ	.	8CJ	8E-J	.	.	.	.	.
.	.	.	.	.	.	12dJ	12gJ	12b-J
=8	=8	=8	=8	=8	=8	=8	=8	=8
!!pagebreak:original
8DL	3	8DL	8FL	4d	4.a	12dL	12fL	12aL
.	.	.	.	.	.	12d	12f	12a
8E-J	.	8E-J	8GJ	.	.	.	.	.
.	.	.	.	.	.	12dJ	12fJ	12aJ
4F	6 3	4F	4A	4d	.	12AL	12fL	12ddL
.	.	.	.	.	.	12A	12f	12dd
.	4	.	.	.	8b-	.	.	.
.	.	.	.	.	.	12AJ	12fJ	12ddJ
8EnL	6	8EnL	8GL	4g	4cc	12enL	12gL	12ccL
.	.	.	.	.	.	12e	12g	12cc
8F#XJ	6 5	8F#XJ	8AJ	.	.	.	.	.
.	.	.	.	.	.	12eJ	12gJ	12ccJ
4G	.	4G	8B-L	4g	4b-	12b-L	12ddL	12ggL
.	.	.	.	.	.	12b-	12dd	12gg
.	.	.	8cJ	.	.	.	.	.
.	.	.	.	.	.	12b-J	12ddJ	12ggJ
=9	=9	=9	=9	=9	=9	=9	=9	=9
4d	4	4d	4d	4g	2a	12ccL	12ddL	12ggL
.	.	.	.	.	.	12cc	12dd	12gg
.	.	.	.	.	.	12ccJ	12ddJ	12ggJ
4D	#	4D	4A	4d	.	12ccL	12ddL	12ff#XL
.	.	.	.	.	.	12cc	12dd	12ff#
.	.	.	.	.	.	12ccJ	12ddJ	12ff#J
2GG;	.	4G;	4B-;	4d;	4g;	12b-L	12ddL	12ggL
.	.	.	.	.	.	12b-	12dd	12gg
.	.	.	.	.	.	12b-J	12ddJ	12ggJ
.	.	4r	4r	4r	4r	12bnL	12ddL	12ffnL
.	.	.	.	.	.	12b	12dd	12ff
.	.	.	.	.	.	12bJ	12ddJ	12ffJ
=10	=10	=10	=10	=10	=10	=10	=10	=10
!!pagebreak:original
2r	.	2r	2r	2r	2r	12ccL	12ddL	12eenL
.	.	.	.	.	.	12cc	12dd	12ee
.	.	.	.	.	.	12ccJ	12ddJ	12eeJ
.	.	.	.	.	.	12f#XL	12ccL	12ee-XL
.	.	.	.	.	.	12f#	12cc	12ee-
.	.	.	.	.	.	12f#J	12ccJ	12ee-J
8GL	.	8GL	4d	4g	4b-	12gL	12b-L	12ddL
.	.	.	.	.	.	12g	12b-	12dd
8GG	.	8GG	.	.	.	.	.	.
.	.	.	.	.	.	12gJ	12b-J	12ddJ
8AA	7 4 2	8AA	4G	4g	4b-	12dL	12gL	12ddL
.	.	.	.	.	.	12d	12g	12dd
8BB-J	.	8BB-J	.	.	.	.	.	.
.	.	.	.	.	.	12dJ	12gJ	12ddJ
=11	=11	=11	=11	=11	=11	=11	=11	=11
4C	6	4C	4A	4e-	4a	12e-L	12gL	12ccL
.	.	.	.	.	.	12e-	12g	12cc
.	.	.	.	.	.	12e-J	12f#XJ	12ccJ
4C#X	7 5	4C#X	4B-	4g	4g	12enL	12gL	12eenL
.	.	.	.	.	.	12e	12g	12ee
.	.	.	.	.	.	12eJ	12gJ	12eeJ
4D	#	4D	4A	4d	4f#X	12f#XL	12ddL	12aL
.	.	.	.	.	.	12f#	12dd	12a
.	.	.	.	.	.	12f#J	12ddJ	12aJ
4E-	6	4E-	4c	4g	4g	12ee-L	12ccL	12gL
.	.	.	.	.	.	12ee-	12cc	12g
.	.	.	.	.	.	12ee-J	12ccJ	12gJ
=12	=12	=12	=12	=12	=12	=12	=12	=12
!!pagebreak:original
4D;	#	4D;	4A;	4f#X;	4a;	12aL	12f#XL	12ddL
.	.	.	.	.	.	12a	12f#	12dd
.	.	.	.	.	.	12aJ	12f#J	12ddJ
4r	.	4r	4r	4r	4r	12f#XL	12aL	12ccL
.	.	.	.	.	.	12f#	12a	12cc
.	.	.	.	.	.	12f#J	12aJ	12ccJ
2r	.	2r	2r	2r	2r	12gL	12aL	12bnL
.	.	.	.	.	.	12g	12a	12b
.	.	.	.	.	.	12gJ	12aJ	12bJ
.	.	.	.	.	.	12c#XL	12gL	12b-XL
.	.	.	.	.	.	12c#	12g	12b-
.	.	.	.	.	.	12c#J	12gJ	12b-J
=13	=13	=13	=13	=13	=13	=13	=13	=13
4D	#	4D	4d	4f#X	4a	8dL	8f#XL	8aL
.	.	.	.	.	.	8d	8f#	8a
8GL	.	8GL	4d	4g	4b-	8B-	8dd	8g
8FJ	.	8FJ	.	.	.	8B-J	8ddJ	8gJ
4En	6	4En	4en	4g	4cc	8GL	8ccL	8ggL
.	.	.	.	.	.	8G	8cc	8gg
8FL	.	8FL	4c	4fn	4a	8A	8ff	8cc
8EJ	.	8EJ	.	.	.	8AJ	8ffJ	8ccJ
=14	=14	=14	=14	=14	=14	=14	=14	=14
4D	6	4D	4d	4f	4b-	8dL	8b-L	8ffL
.	.	.	.	.	.	8d	8b-	8ff
8CL	6 4	8CL	8AL	4f	4a	8a	8cc	8ff
8BB-J	.	8BB-J	8FJ	.	.	8b-J	8ddJ	8ffJ
4C	5 4	2C	4c	4f	2g	8b-L	8ccL	8ffL
.	.	.	.	.	.	8b-	8cc	8ff
4CC	.	.	4G	4c	.	8b-	8cc	8een
.	.	.	.	.	.	8b-J	8ccJ	8eeJ
=15	=15	=15	=15	=15	=15	=15	=15	=15
4FF;	.	4F;	4A;	4c;	4f;	8aL	8ccL	8ffL
.	.	.	.	.	.	8a	8cc	8ff
4r	.	4r	4r	4r	4r	8f	8dd-X	8ff
.	.	.	.	.	.	8fJ	8dd-J	8ffJ
2r	.	2r	2r	2r	2r	8gL	8dd-L	8eenL
.	.	.	.	.	.	8g	8dd-	8ee
.	.	.	.	.	.	8a	8cc	8ee-X
.	.	.	.	.	.	8aJ	8ccJ	8ee-J
=16	=16	=16	=16	=16	=16	=16	=16	=16
!!pagebreak:original
8GGL	.	4G	8dL	4g	4b-	8b-L	8b-L	8ddL
8G	.	.	8gJ	.	.	8b-	8b-	8dd
8F	7 5	8FL	4c	4a	4cc	8f	8a	8ff
8E-J	.	8E-J	.	.	.	8fJ	8aJ	8ffJ
8DL	6	8DL	8B-L	4f	4dd	8fL	8b-L	8ffL
8C	.	8c	8cJ	.	.	8f	8b-	8ff
8BB-	.	8B-	4d	4b-	4dd	8d	8b-	8gg
8AAJ	.	8AJ	.	.	.	8dJ	8b-J	8ggJ
=17	=17	=17	=17	=17	=17	=17	=17	=17
8GGL	6	8GL	4g	4b-	4ee-	8B-L	8b-L	8ggL
8FF	.	8F	.	.	.	8B-	8cc	8aa
8EE-	7 5 2	8E-	8fL	4b-	4dd	8f	8dd	8bb-
8DDJ	.	8DJ	8B-J	.	.	8fJ	8ddJ	8bb-J
4EE-	6 5	4E-	4c	4g	2cc	8e-L	8ggL	8bb-L
.	.	.	.	.	.	8e-	8gg	8bb-
4FF	.	4F	4f	4c	.	8e-	8ff	8aa
.	.	.	.	.	.	8e-J	8ffJ	8aaJ
=18	=18	=18	=18	=18	=18	=18	=18	=18
4BB-;	.	4BB-;	4f;	4d;	4b-;	8dL	8ffL	8bb-L
.	.	.	.	.	.	8d	8ff	8bb-
4r	.	4r	4r	4r	4r	8d	8ff	8aa-X
.	.	.	.	.	.	8dJ	8ffJ	8aa-J
2r	.	2r	2r	2r	2r	8e-L	8ffL	8ggL
.	.	.	.	.	.	8e-	8ff	8gg
.	.	.	.	.	.	8A	8ee-	8gg-X
.	.	.	.	.	.	8AJ	8ee-J	8gg-J
=19	=19	=19	=19	=19	=19	=19	=19	=19
!!pagebreak:original
8BB-L	.	8BB-L	4B-	4f	4dd	6B-	6dd	6ff
8C	.	8C	.	.	.	.	.	.
.	.	.	.	.	.	12B-	12dd	12ff
8D	.	8D	8FL	4f	4dd	6f	6ff	6bb-
8E-J	.	8E-J	8GJ	.	.	.	.	.
.	.	.	.	.	.	12f	12ff	12bb-
8FL	.	8FL	8AL	4f	4cc	6cc	6ff	6bb-
8En	.	8En	8GJ	.	.	.	.	.
.	.	.	.	.	.	12cc	12ff	12bb-
8F#X	6	8F#X	8AL	4a	4dd	6a	6dd	6aa
8DJ	.	8DJ	8F#XJ	.	.	.	.	.
.	.	.	.	.	.	12a	12dd	12aa
=20	=20	=20	=20	=20	=20	=20	=20	=20
4G	.	4G	8GL	4d	4b-	6b-	6dd	6aa
.	.	.	8B-J	.	.	.	.	.
.	.	.	.	.	.	12b-	12dd	12aa
8FL	7 5 2	8FnL	4e-	4g	4cc	6g	6ee-	6gg
8E-J	.	8E-J	.	.	.	.	.	.
.	.	.	.	.	.	12g	12ee-	12gg
4D;	#	4D;	4F#X;	4a;	4dd;	6dd	6a	6ff#X
.	.	.	.	.	.	12dd	12a	12ff#
4r	.	4r	4r	4r	4r	6d	6bb-	6ddd
.	.	.	.	.	.	12d	12bb-	12ddd
=21	=21	=21	=21	=21	=21	=21	=21	=21
2r	.	2r	2r	2r	2r	6en	6bb-	6ccc#X
.	.	.	.	.	.	12e	12bb-	12ccc#
.	.	.	.	.	.	6f#X	6aa	6cccn
.	.	.	.	.	.	12f#	12aa	12ccc
8GL	5 4	8GL	4.d	4g	4dd	6g	6aa	6ccc
8A	.	8A	.	.	.	.	.	.
.	.	.	.	.	.	12g	12aa	12ccc
8B-	6	8B-	.	8gL	4dd	6d	6gg	6bb-
8DJ	.	8DJ	8B-	8fJ	.	.	.	.
.	.	.	.	.	.	12d	12gg	12bb-
=22	=22	=22	=22	=22	=22	=22	=22	=22
!!pagebreak:original
8EnL	6 5	8EnL	8GL	8enL	4cc	6G	6gg	6bb-
8F#X	6 5	8F#X	8AJ	8dJ	.	.	.	.
.	.	.	.	.	.	12d	12dd	12aa
8G	9	8G	8B-L	4d	4b-	6d	6dd	6aa
8BB-J	6	8BB-J	8GJ	.	.	.	.	.
.	.	.	.	.	.	12g	12dd	12gg
8CL	6 5	8CL	8cL	8e-XL	4a	6e-	6cc	6gg
8AA	.	8AAJ	8e-J	8cJ	.	.	.	.
.	.	.	.	.	.	12e-	12cc	12gg
8D	#	4D	8F#XL	4A	4a	6d	6cc	6ff#X
8DDJ	.	.	8dJ	.	.	.	.	.
.	.	.	.	.	.	12d	12cc	12ff#
=23	=23	=23	=23	=23	=23	=23	=23	=23
4GG	n	4GG	4d	4Bn	4g	4d	4bn	4gg
4r	.	4r	4r	4r	4r	4G	2ee-	4gg
2r	.	2r	2r	2r	2r	4A	.	4ff#X
.	.	.	.	.	.	4Bn	[4dd	4ffn
=24	=24	=24	=24	=24	=24	=24	=24	=24
1r	.	1r	1r	1r	1r	4c	4dd]	4een
.	.	.	.	.	.	4F#X	2cc	4ee-X
.	.	.	.	.	.	[2G	.	[2dd
.	.	.	.	.	.	.	8bnL	.
.	.	.	.	.	.	.	8aJ	.
=25	=25	=25	=25	=25	=25	=25	=25	=25
1r;	.	1r;	1r;	1r;	1r;	1G;]	1bn;	1dd;]
=||	=||	=||	=||	=||	=||	=||	=||	=||
*-	*-	*-	*-	*-	*-	*-	*-	*-
!!!system-decoration: s1,s2,s3,s4,s5,s6,s7,s8
